X:150
T:Humours of Scarriff
Z: id:dc-reel-138
M:C
L:1/8
K:D Dorian
Adde f2ed|cAGc AcGc|Adde f2ed|cAGE EDD2:|!
ecgc acgc|ecgc eaa2|ecgc acgc|edd2 edd2|!
ecgc acgc|ecgc eaa2|abag eged|cAGE EDD2|]!

